icons/coreos-fill.svg

<svg width="24" height="24" fill="none" xmlns="http://www.w3.org/2000/svg"><g clip-path="url(#a)"><path d="M12 22C6.477 22 2 17.523 2 12S6.477 2 12 2s10 4.477 10 10-4.477 10-10 10Zm-3.671-9.696c-.04.85.037 1.697.118 2.544.005.06.027.074.08.08.406.054.813.102 1.222.127.964.061 1.928.139 2.896.085.55-.03 1.1-.048 1.648-.095a20.59 20.59 0 0 0 2.33-.312c.958-.194 1.907-.425 2.8-.845.406-.19.79-.415 1.114-.736.238-.235.408-.507.41-.86a8.914 8.914 0 0 0-.045-.94 9.022 9.022 0 0 0-.481-2.18c-.584-1.618-1.51-2.989-2.826-4.07a8.87 8.87 0 0 0-3.851-1.863c-.5-.105-1.006-.144-1.514-.18-.573-.041-1.064.12-1.488.514-.495.457-.837 1.024-1.122 1.633-.667 1.427-.973 2.954-1.166 4.508a15.215 15.215 0 0 0-.125 2.59Zm3.57-5.03c.959.03 1.77.324 2.494.856a4.326 4.326 0 0 1 1.714 2.612c.068.304.097.612.103.922.005.209-.11.362-.262.49-.307.258-.67.401-1.05.508-.74.207-1.496.326-2.265.366-.5.026-1 .035-1.5.01-.192-.01-.385-.024-.577-.032-.06-.002-.08-.02-.084-.081-.023-.434-.057-.868-.05-1.302.016-1.026.094-2.045.397-3.034.1-.329.223-.65.42-.936.173-.25.378-.437.66-.38v.001Z" /></g><defs><clipPath id="a"><path fill="#fff" d="M0 0h24v24H0z"/></clipPath></defs></svg>

<svg xmlns="http://www.w3.org/2000/svg" width="24" height="24" fill="none"><g clip-path="url(#a)"><g><path fill="#121212" d="M12 22C6.477 22 2 17.523 2 12C2 6.477 6.477 2 12 2C17.523 2 22 6.477 22 12C22 17.523 17.523 22 12 22ZM8.329 12.304C8.289 13.154 8.366 14.001 8.447 14.848C8.452 14.908 8.474 14.922 8.527 14.928C8.933 14.982 9.34 15.03 9.749 15.055C10.713 15.116 11.677 15.194 12.645 15.14C13.195 15.11 13.745 15.092 14.293 15.045C15.073 14.977 15.853 14.89 16.623 14.733C17.581 14.539 18.53 14.308 19.423 13.888C19.829 13.698 20.213 13.473 20.537 13.152C20.775 12.917 20.945 12.645 20.947 12.292C20.9486 11.9781 20.9335 11.6643 20.902 11.352C20.8325 10.6082 20.671 9.87595 20.421 9.172C19.837 7.554 18.911 6.183 17.595 5.102C16.4826 4.17611 15.1604 3.53651 13.744 3.239C13.244 3.134 12.738 3.095 12.23 3.059C11.657 3.018 11.166 3.179 10.742 3.573C10.247 4.03 9.905 4.597 9.62 5.206C8.953 6.633 8.647 8.16 8.454 9.714C8.33871 10.5722 8.29689 11.4387 8.329 12.304ZM11.899 7.274C12.858 7.304 13.669 7.598 14.393 8.13C15.2698 8.75676 15.881 9.68822 16.107 10.742C16.175 11.046 16.204 11.354 16.21 11.664C16.215 11.873 16.1 12.026 15.948 12.154C15.641 12.412 15.278 12.555 14.898 12.662C14.158 12.869 13.402 12.988 12.633 13.028C12.133 13.054 11.633 13.063 11.133 13.038C10.941 13.028 10.748 13.014 10.556 13.006C10.496 13.004 10.476 12.986 10.472 12.925C10.449 12.491 10.415 12.057 10.422 11.623C10.438 10.597 10.516 9.578 10.819 8.589C10.919 8.26 11.042 7.939 11.239 7.653C11.412 7.403 11.617 7.216 11.899 7.273V7.274Z"/></g></g><defs><clipPath id="a"><rect width="24" height="24" fill="white"/></clipPath></defs></svg>
